X:960
T:White Cock (and a ... rest of title illegible)
A:Wyresdale, Lancashire
B:E and J Winder, 1835-41
L:1/8
M:C|
O:England
Z:Richard Robinson 
%%RRN:this doesn't add up. try ending with "d/c/B/A/ GB A2 A2"
%%TUNEURL: http://www.leeds.ac.uk/music/Info/RRTuneBk/gettune/00001103.html
%%ID:00001103
K:A dorian
(ABcd) efed | e2fd defd | deAd efed | e2(dc BA)GB | A2A2 ::
aa gg ff e2 | fdde fdde | aagg ffe2 | (dcBA) GBA2 | A2 ::
